X: 11
T:Wassail 2
% Nottingham Music Database
S:Trad
M:6/8
K:D
D|"D"D2A A2B|"D"A2F D2C|"D"D2E F2G|"A7"A3 -A2D|"D"D2A A2B|"D"A2F D2C|\
"D"D2E F2G|"A7"A3 -A3||
|:"D"d2d d2d|"C"=c3 "G"B3|"D"A2F D2D|"G"G3 F2G|"D"A3 "A7/e"A3|"D/f+"A3 "G"A2B|\
"Em"A3 "A7"G2E|"D"D3 D3:|


